X:2877
T:Fr\"uhling und Liebe
C:Joh. Abr. Peter Schulz
O:Germany
Z:Transcribed by Frank Nordberg - http://www.musicaviva.com
F:http://abc.musicaviva.com/tunes/schulz-joh-abr-peter/schulz-fruhling-und-liebe.abc
M:3/8
L:1/8
K:E
"E"G>FE|"B"BBB|"F#7"e>fe|"E"e2"B"d|"B"f>dB|
w:Fr\"uh-ling und Lie-be sie keh-ren nun wie-der, horch, schon er-
"E"e>BG|"E"B>AG|"E"G2"B"F|"B"F>G"F#"^A|"B"Bcd|
w:schal-len der Nach-ti-gall Lie-der lie-be-voll lok-kend aus
"E"e>c"F#"^A|"B"B2 z|"B7"f>dB|"E"eBG|"B"A>FD|"E"E2 z|]
w:Busch und aus Strauch. Ban-ne, Ge-lieb-te, die Trau-er du auch!
W:
W:Fr\"uhling und Liebe sie kehren nun wieder,
W:horch, schon erschallen der Nachtigall Lieder
W:liebevoll lokkend aus Busch und aus Strauch.
W:Banne, Geliebte, die Trauer du auch!
W:
W:Wozy den gr\"amen, wenn alles sich freuet,
W:wenn's auch im Herzen so wonniglich maiet,
W:la\ss dich erflehen und kehre zur\"uck!
W:Kehre, Geliebte, mein Alles, mein Gl\"uck!
W:
W:
W:  From Musica Viva - http://www.musicaviva.com
W:  the Internet center for free sheet music downloads.


